X:140
T: ADAM HATTE SIEBEN SOEHNE
N: K2237
O: Europa, Mitteleuropa, Deutschland, Kassel
R: Kinder - Lied, Reigen, Tanz, Nachahmungs - Spiel, Pantomime
M: 2/4
L: 1/16
K: C
 | G2G2A2A2 | G2F2E2
C2 | G2G2A2A2 | G4E2
A2 | G2F2E2A2 | G2F2E2
C2 | G2G2A2A2 | G2F2E4 |
G2G2A2A2 | G2F2E4 |
G2G2A2A2 | G2F2E4 |
G2G2A2A2 | G2F2E4 |
G2G2A2A2 | G2F2E2
A2 | G2F2E2A2 | G2F2E2
C2 | G2G2A2A2 | G4E2
C2 | G2G2A2A2 | G2F2E2
C2 | GGG2A2A2 | G4E4

@@@ Tune index: 7477
